X:8097
T:Wild Geese, The
O:england
M:6/8
L:1/8
R:J
K:A
d|"A"c2 e ece |"D"fga "A"ecA|"A"c2 e ecA|"E7"GAB Bcd|"A"c2 e ece |"D"fga
"A"ecA|"D6"Bcd "E7"efg|"A"aec A2:|| (3e/f/g/|"A"a3 Ace|"A"aga ecA|"Bm"d
cB fdB|"E7"bge efg|1 "A"a3 Ace|"A"aga ecA|"D6"Bcd "E7"efg|"A"aec A2:||2
"A"a2 e ece|"D"fga "A"ecA|"D6"Bcd "E7"efg|"A"aec A2||


